src/assets/dark/IconWarp.svg

<svg width="50" height="50" viewBox="0 0 50 50" fill="none" xmlns="http://www.w3.org/2000/svg">
<circle cx="25" cy="25" r="25" fill="#2BC58E" fill-opacity="0.2"/>
<mask id="mask0" mask-type="alpha" maskUnits="userSpaceOnUse" x="0" y="0" width="50" height="50">
<circle cx="25" cy="25" r="25" fill="#26C395"/>
</mask>
<g mask="url(#mask0)">
<path d="M24.9408 46C37.3513 46 47.412 37.8703 47.412 27.8418C47.412 17.8133 37.3513 9.68359 24.9408 9.68359C12.5302 9.68359 2.46948 17.8133 2.46948 27.8418C2.46948 37.8703 12.5302 46 24.9408 46Z" stroke="#2ED2A1" stroke-width="0.5" stroke-miterlimit="10"/>
<path d="M24.9408 51.2375C40.5413 51.2375 53.188 39.1542 53.188 24.2486C53.188 9.34309 40.5413 -2.74023 24.9408 -2.74023C9.34031 -2.74023 -3.3064 9.34309 -3.3064 24.2486C-3.3064 39.1542 9.34031 51.2375 24.9408 51.2375Z" stroke="#2ED2A1" stroke-width="0.5" stroke-miterlimit="10"/>
<path d="M25.0422 -29L25.0422 40.9725" stroke="#2ED2A1" stroke-width="0.5" stroke-miterlimit="10" stroke-linecap="round" stroke-linejoin="round"/>
<path d="M-11.9995 -24.0859C-11.9995 -24.0859 4.82092 -16.1144 12.0055 3.02017C19.1901 22.1547 17.4502 35.4722 17.4502 35.4722" stroke="#2ED2A1" stroke-width="0.5" stroke-miterlimit="10" stroke-linecap="round" stroke-linejoin="round"/>
<path d="M32.5007 35.6641C32.5007 35.6641 30.7607 22.3028 37.9453 3.10522C43.7761 -12.4749 55.9535 -20.6784 60.3357 -23.2168" stroke="#2ED2A1" stroke-width="0.5" stroke-miterlimit="10" stroke-linecap="round" stroke-linejoin="round"/>
<path d="M8.78514 32.2756C8.78514 32.2756 4.52674 21.7524 -6.34631 13.2264C-17.2194 4.70029 -29.5706 5.78922 -29.5706 5.78922" stroke="#2ED2A1" stroke-width="0.5" stroke-miterlimit="10" stroke-linecap="round" stroke-linejoin="round"/>
<path d="M41.0954 32.2756C41.0954 32.2756 45.3538 21.7524 56.2268 13.2264C67.0998 4.70029 79.451 5.78922 79.451 5.78922" stroke="#2ED2A1" stroke-width="0.5" stroke-miterlimit="10" stroke-linecap="round" stroke-linejoin="round"/>
<path d="M10.2317 36.3446C10.2317 36.3446 1.1218 33.6617 -9.31567 39.7504" stroke="#2ED2A1" stroke-width="0.5" stroke-miterlimit="10" stroke-linecap="round" stroke-linejoin="round"/>
<path d="M35.2781 40.0215C35.2781 40.0215 37.8418 44.6448 37.8418 54.8846" stroke="#2ED2A1" stroke-width="0.5" stroke-miterlimit="10" stroke-linecap="round" stroke-linejoin="round"/>
<path d="M14.6628 40.0215C14.6628 40.0215 12.2425 45.4981 12.2425 54.8846" stroke="#2ED2A1" stroke-width="0.5" stroke-miterlimit="10" stroke-linecap="round" stroke-linejoin="round"/>
<path d="M40.2261 35.5165C40.2261 35.5165 49.336 32.8336 59.7735 38.9223" stroke="#2ED2A1" stroke-width="0.5" stroke-miterlimit="10" stroke-linecap="round" stroke-linejoin="round"/>
<path d="M24.9403 42.2483C33.8627 42.2483 41.0958 37.6408 41.0958 31.9572C41.0958 26.2735 33.8627 21.666 24.9403 21.666C16.0179 21.666 8.78479 26.2735 8.78479 31.9572C8.78479 37.6408 16.0179 42.2483 24.9403 42.2483Z" stroke="#2ED2A1" stroke-width="0.5" stroke-miterlimit="10"/>
<path d="M24.9393 40.9258C29.3705 40.9258 32.9626 39.1541 32.9626 36.9687C32.9626 34.7833 29.3705 33.0117 24.9393 33.0117C20.5082 33.0117 16.916 34.7833 16.916 36.9687C16.916 39.1541 20.5082 40.9258 24.9393 40.9258Z" stroke="#2ED2A1" stroke-width="0.5" stroke-miterlimit="10"/>
</g>
<circle cx="32.0034" cy="21.9339" r="5.47103" fill="url(#paint0_linear)"/>
<defs>
<linearGradient id="paint0_linear" x1="29.5" y1="24.5" x2="40.5" y2="16" gradientUnits="userSpaceOnUse">
<stop stop-color="#A46DDF"/>
<stop offset="1" stop-color="#BE90EF"/>
</linearGradient>
</defs>
</svg>

<svg width="50" height="50" fill="none" xmlns="http://www.w3.org/2000/svg"><circle cx="25" cy="25" r="25" fill="#2BC58E" fill-opacity=".2"/><mask id="a" maskUnits="userSpaceOnUse" x="0" y="0" width="50" height="50"><circle cx="25" cy="25" r="25" fill="#26C395"/></mask><g mask="url(#a)" stroke="#2ED2A1" stroke-width=".5" stroke-miterlimit="10"><path d="M24.94 46c12.411 0 22.472-8.13 22.472-18.158 0-10.029-10.06-18.158-22.471-18.158-12.41 0-22.472 8.13-22.472 18.158S12.53 46 24.941 46z"/><path d="M24.94 51.237c15.601 0 28.248-12.083 28.248-26.988 0-14.906-12.647-26.99-28.247-26.99S-3.306 9.344-3.306 24.25c0 14.905 12.646 26.988 28.247 26.988z"/><path d="M25.042-29v69.972M-12-24.086S4.82-16.114 12.005 3.02c7.185 19.135 5.445 32.452 5.445 32.452M32.5 35.664s-1.74-13.361 5.445-32.559c5.831-15.58 18.008-23.783 22.39-26.322M8.785 32.276S4.527 21.752-6.346 13.226C-17.22 4.7-29.571 5.79-29.571 5.79M41.095 32.276s4.259-10.524 15.132-19.05C67.1 4.7 79.45 5.79 79.45 5.79M10.232 36.345s-9.11-2.683-19.548 3.405M35.278 40.022s2.564 4.623 2.564 14.863M14.663 40.022s-2.42 5.476-2.42 14.863M40.226 35.517s9.11-2.683 19.547 3.405" stroke-linecap="round" stroke-linejoin="round"/><path d="M24.94 42.248c8.923 0 16.156-4.607 16.156-10.29 0-5.684-7.233-10.292-16.156-10.292-8.922 0-16.155 4.607-16.155 10.291s7.233 10.291 16.155 10.291z"/><path d="M24.94 40.926c4.43 0 8.023-1.772 8.023-3.957 0-2.186-3.593-3.957-8.024-3.957-4.43 0-8.023 1.771-8.023 3.957 0 2.185 3.592 3.957 8.023 3.957z"/></g><circle cx="32.003" cy="21.934" r="5.471" fill="url(#paint0_linear)"/><defs><linearGradient id="paint0_linear" x1="29.5" y1="24.5" x2="40.5" y2="16" gradientUnits="userSpaceOnUse"><stop stop-color="#A46DDF"/><stop offset="1" stop-color="#BE90EF"/></linearGradient></defs></svg>
